X:1
T:Donna s'il volto
T:Benedetto Ferrari
T:Source : Muasiche Varie a voce sola---Libro terzo---Venetia---B.Magni---1641. Editor : André Vierendeels (07/01/17).
T:Notes : Original clefs : C4, F4 Original note values have been halved in 3-beat measures Figures in BC are notated in original print 
T:Donna s'il volto
T:©
T:©
C:Benedetto Ferrari
Z:©
%%score 1 2
L:1/8
Q:1/4=103
M:6/4
K:C
V:1 treble-8 nm="Tenor" snm="T"
V:2 bass nm="MusicXML Part"
V:1
 c2 G2 c2 A3 B cd | B2 G4 z2 c2 B2 | B4 A4 A4 | G4 z4 G2 A2 | F2 F4- F2 E2 A2 | D6 C6 :: %6
w: Don- na s'il vol- * * *|* to v'han- n'of-|fe- so gl'an-|oi por per|voi sen- * to af-|fa- ni.|
w: Puo ben del vol- to le fio-|ri- te piag- ge|far il tem-|po far _|il tem- * po sel-|vag- ge,|
w: Par- li chi vuol del mi- *|hu- mor stra- *|va- * gan-|te e del|vo- stro _ sem- *|bian- te,|
 cB cd e2 fe fg a2 | z2 z2 c2 f4 gf | e4 fe d3 B cd | e3 dcB A2 dcdc | B4 B2 z2 A4- | %11
w: O _ _ _ _ _ _ _ _ _|sto- po- re d'un|vi- so _ _ che sa di-|strut- to dal- l'e tà vo- * * *|lan- ti, con-|
w: ma- * * * * * * * * i|che di que- *|gli'oc- chi _ ca- r'il _ _|lu- * * * me in- * * *|gom- bre, che|
w: ah _ _ _ _ _ _ _ _ _|che brut- ta non|sie- te se ben le ru- *|ghe vi fan om- bra, e _ ve- l'os-|cu- ro, e|
 A2 A4- A2 A4 | A6 G6 | z2 z GFG E6 | A2 D4 C6 :| %15
w: * su- * mar|al- me|e'an- ni- chi lar|a- man- ti|
w: _ do- * ve'al-|log- gia|il Sol non en-|tran l'om- bre.|
w: _ chia- * ro'e|sem- pre,|e sem- pre bel-|lo'il cie- lo.|
V:2
"^BC" C,6 F,,6 | G,,3 A,, B,,C, A,,6 |"^6" B,,4 C,4 D,4 | G,,3 A,, B,,G,, C,6 | D,2 B,,4 C,4 F,,2 | %5
 G,,6 C,,6 :: C,4 B,,2 A,,4 G,,2 | F,,4 E,,2 D,,6 | C,,6 G,,6 |"^6" E,,6 F,2 ^F,4 | %10
 G,3 F, E,D, C,6 |"^#" D,6 _E,6 | D,6 G,3 G, F,G, | E,3 E, D,E, C,4 F,,2- | F,,2 G,,4 C,6 :| %15

